svgs/solid/right-from-bracket.svg

<svg xmlns="http://www.w3.org/2000/svg" viewBox="0 0 512 512"><!--! Font Awesome Pro 6.0.0-alpha3 by @fontawesome - https://fontawesome.com License - https://fontawesome.com/license (Commercial License) --><path d="M96 480h64C177.7 480 192 465.7 192 448S177.7 416 160 416H96c-17.67 0-32-14.33-32-32V128c0-17.67 14.33-32 32-32h64C177.7 96 192 81.67 192 64S177.7 32 160 32H96C42.98 32 0 74.98 0 128v256C0 437 42.98 480 96 480zM504.8 238.5l-144.1-136c-6.975-6.578-17.2-8.375-26-4.594c-8.803 3.797-14.51 12.47-14.51 22.05l-.0918 72l-128-.001c-17.69 0-32.02 14.33-32.02 32v64c0 17.67 14.34 32 32.02 32l128 .001l.0918 71.1c0 9.578 5.707 18.25 14.51 22.05c8.803 3.781 19.03 1.984 26-4.594l144.1-136C514.4 264.4 514.4 247.6 504.8 238.5z"/></svg>

<svg xmlns="http://www.w3.org/2000/svg" viewBox="0 0 512 512"><!-- Font Awesome Pro 6.0.0-alpha2 by @fontawesome - https://fontawesome.com License - https://fontawesome.com/license (Commercial License) --><path d="M96 480H160C177.673 480 192 465.673 192 448V448C192 430.327 177.673 416 160 416H96C78.327 416 64 401.673 64 384V128C64 110.327 78.327 96 96 96H160C177.673 96 192 81.673 192 64V64C192 46.327 177.673 32 160 32H96C42.981 32 0 74.981 0 128V384C0 437.019 42.981 480 96 480ZM504.799 238.545L360.697 102.545C353.723 95.967 343.496 94.17 334.693 97.951C325.891 101.748 320.184 110.42 320.184 119.998V191.998H192.092C174.404 191.998 160.068 206.326 160.068 223.998V287.998C160.068 305.672 174.404 319.998 192.092 319.998H320.184V391.998C320.184 401.576 325.891 410.248 334.693 414.045C343.496 417.826 353.723 416.029 360.697 409.451L504.799 273.451C514.4 264.389 514.4 247.607 504.799 238.545Z"/></svg>
